X:1
T:Jesus Is the Only Way
T:Jesus Is the Only Way
T:Scott Werdebaugh, 2018
T:Arthur J. Hodge, 1843, alt.
T:Public Domain Courtesy of the Cyber Hymnal™
T:Public Domain Courtesy of the Cyber Hymnal™
C:Scott Werdebaugh, 2018
Z:Public Domain
Z:Courtesy of the Cyber Hymnal™
%%score ( 1 2 ) ( 3 4 )
L:1/8
Q:1/4=132
M:4/4
K:C
V:1 treble 
V:2 treble 
V:3 bass 
V:4 bass 
V:1
 [CE]2 | [EG]4 [EG]2 [FA]2 | [EG]4 [CE]2 [B,D]2 | [G,C]4 [B,D]4 | [CE]4 z2 [CE]2 | %5
w: 1.~There|is just one|way for you|all to|come; There|
w: 2.~There|is just one|smile that can|cheer your|path; There|
w: 3.~There|is just one|fount— there is|just one|cross— There|
 [EG]4 [EG]2 [FA]2 | [EG]4 [CE]2 [G,C]2 | [EG]4 (F2 E2) | [B,D]4 z2 [CE]2 | [EG]4 [EG]2 [FA]2 | %10
w: is just one|road that will|lead you *|home; There|is just one|
w: is just one|name that can|save from *|wrath; There|is just one|
w: is just one|help for the|sin- ner’s *|loss; There|is just one|
 [EG]4 [CE]2 [B,D]2 | [G,C]4 [B,D]4 | [CE]4 z2 [CE]2 | [EG]4 [CA]4 | [EG]4 [CE]2 [G,C][B,D] | %15
w: gate to the|realms of|day— The|bless- èd|Je- sus is the|
w: life that could|e’er a-|tone— O|bless- èd|Je- sus, it is|
w: hope— all in|all to|me— O|bless- èd|Je- sus, it is|
 [CE]4 [B,D]4 | [G,C]6 z2 ||"^Refrain" [CA]2 [CA]2 [DB]2 [Ec]2 | [EG]4 [CE]4 | [G,C]4 [B,D]4 | %20
w: on- ly|way.||||
w: Thine a-|lone!|Je- sus is the|way— the|on- ly|
w: none but|Thee!||||
 [CE]6 z2 | [CA]2 [CA]2 [DB]2 [Ec]2 | [EG]4 [CE]4 | [G,C]2 [CE]2 [CF]4 | [CE]4 !fermata![B,D]4 | %25
w: |||||
w: way;|Lov- ing- ly He|calls us,|thus the Scrip-|tures say,|
w: |||||
 [CA]2 [CA]2 [DB]2 [FA]2 | [EG]4 [CE]2 [B,D]2 | [G,C]4 [B,D]4 | [CE]4 z2 [EG]2 | %29
w: ||||
w: Who- so- ev- er|will, let Him|come to-|day— The|
w: ||||
 [CA]2 [CA]2 [DB]2 [CA]2 | [EG]4 [CE]4 | [G,C]4 [B,D]4 | !fermata![G,C]6"^Play 3 times" :| %33
w: ||||
w: bless- èd Je- sus|is the|on- ly|way!|
w: ||||
V:2
 x2 | x8 | x8 | x8 | x8 | x8 | x8 | x4 C4 | x8 | x8 | x8 | x8 | x8 | x8 | x8 | x8 | x8 || x8 | x8 | %19
 x8 | x8 | x8 | x8 | x8 | x8 | x8 | x8 | x8 | x8 | x8 | x8 | x8 | x6 :| %33
V:3
 [C,G,]2 | [C,C]4 [C,C]2 [F,C]2 | [C,C]4 [C,G,]2 [G,,G,]2 | [C,E,]4 [G,,F,]4 | [C,G,]4 z2 [C,G,]2 | %5
 [C,C]4 [C,C]2 [F,C]2 | [C,C]4 [C,G,]2 [C,E,]2 | [C,G,]4 [F,A,]4 | [G,,G,]4 z2 [C,G,]2 | %9
 [C,C]4 [C,C]2 [F,C]2 | [C,C]4 [C,G,]2 [G,,F,]2 | [C,E,]4 [G,,G,]4 | [C,G,]4 z2 [C,G,]2 | %13
 [C,C]4 [F,A,]4 | [C,C]4 [C,G,]2 [C,E,][G,,G,] | [C,G,]4 (G,2 F,2) | [C,E,]6 z2 || %17
 [F,A,]2 [F,A,]2 [G,,G,]2 [C,G,]2 | [C,C]4 [C,G,]4 | [C,E,]4 [G,,G,]4 | [C,G,]6 z2 | %21
 [F,A,]2 [F,A,]2 [G,,G,]2 [C,G,]2 | [C,C]4 [C,G,]4 | [C,E,]2 [C,G,]2 [F,A,]4 | %24
 [C,G,]4 !fermata![G,,G,]4 | [F,,F,]2 [F,,F,]2 [G,,G,]2 [F,,C]2 | [C,C]4 [C,G,]2 [G,,G,]2 | %27
 [C,E,]4 [G,,G,]4 | [C,G,]4 z2 [C,C]2 | [F,,A,]2 [F,,F,]2 [G,,G,]2 [F,,F,]2 | [C,C]4 [C,G,]4 | %31
 [C,E,]4 (G,2 F,2) | !fermata![C,E,]6"^Play 3 times" :| %33
V:4
 x2 | x8 | x8 | x8 | x8 | x8 | x8 | x8 | x8 | x8 | x8 | x8 | x8 | x8 | x8 | x4 G,,4 | x8 || x8 | %18
 x8 | x8 | x8 | x8 | x8 | x8 | x8 | x8 | x8 | x8 | x8 | x8 | x8 | x4 G,,4 | x6 :| %33

